dist/svg/block-app.svg

<!-- Generated by Trend Micro Style Portal -->
<svg version="1.1" xmlns="http://www.w3.org/2000/svg" width="16" height="16" viewBox="0 0 16 16">
  <title>block-app</title>
  <path fill="rgb(34,34,34)" d="M15 1h-14c-0.552 0.002-0.998 0.448-1 1v12c0.002 0.552 0.448 0.998 1 1h5v-1h-5v-11h14v4h1v-5c-0.002-0.552-0.448-0.998-1-1h-0zM11 6c-2.761 0-5 2.239-5 5v0c0 2.761 2.239 5 5 5s5-2.239 5-5c0-2.761-2.239-5-5-5v0zM14.5 11.001c-0 0.699-0.209 1.349-0.568 1.892l0.008-0.013-4.82-4.82-0.013 0.008c0.537-0.354 1.195-0.564 1.902-0.564 1.928 0 3.49 1.562 3.491 3.49v0.007zM11 14.5h-0.006c-1.927-0-3.49-1.563-3.49-3.49v-0c-0-0.003-0-0.007-0-0.011 0-0.699 0.207-1.349 0.564-1.893l-0.008 0.013 4.82 4.82 0.013-0.008c-0.533 0.355-1.188 0.567-1.893 0.568h-0z"></path>
</svg>

<svg width="16" height="16" viewBox="0 0 16 16" fill="rgb(34, 34, 34)" xmlns="http://www.w3.org/2000/svg"><title>block-app</title><path d="M15 1H1C0.448 1.002 0.002 1.448 0 2V14C0.002 14.552 0.448 14.998 1 15H6V14H1V3H15V7H16V2C15.998 1.448 15.552 1.002 15 1ZM11 6C8.239 6 6 8.239 6 11C6 13.761 8.239 16 11 16C13.761 16 16 13.761 16 11C16 8.239 13.761 6 11 6ZM14.5 11.001C14.5 11.7 14.291 12.35 13.932 12.893L13.94 12.88L9.12 8.06L9.107 8.068C9.644 7.714 10.302 7.504 11.009 7.504C12.937 7.504 14.499 9.066 14.5 10.994V11.001ZM11 14.5H10.994C9.067 14.5 7.504 12.937 7.504 11.01C7.504 11.007 7.504 11.003 7.504 10.999C7.504 10.3 7.711 9.65 8.068 9.106L8.06 9.119L12.88 13.939L12.893 13.931C12.36 14.286 11.705 14.498 11 14.499V14.5Z" fill="rgb(34, 34, 34)" fill-opacity="1.00"/></svg>
